core/assets/icons/audio.svg

<svg width="24" height="24" viewBox="0 0 24 24" xmlns="http://www.w3.org/2000/svg"><g id="audio"><path id="Vector" d="M4 12H7C7.53043 12 8.03914 12.2107 8.41421 12.5858C8.78929 12.9609 9 13.4696 9 14V19C9 19.5304 8.78929 20.0391 8.41421 20.4142C8.03914 20.7893 7.53043 21 7 21H4C3.46957 21 2.96086 20.7893 2.58579 20.4142C2.21071 20.0391 2 19.5304 2 19V12C2 6.477 6.477 2 12 2C17.523 2 22 6.477 22 12V19C22 19.5304 21.7893 20.0391 21.4142 20.4142C21.0391 20.7893 20.5304 21 20 21H17C16.4696 21 15.9609 20.7893 15.5858 20.4142C15.2107 20.0391 15 19.5304 15 19V14C15 13.4696 15.2107 12.9609 15.5858 12.5858C15.9609 12.2107 16.4696 12 17 12H20C20 9.87827 19.1571 7.84344 17.6569 6.34315C16.1566 4.84285 14.1217 4 12 4C9.87827 4 7.84344 4.84285 6.34315 6.34315C4.84285 7.84344 4 9.87827 4 12Z"/></g></svg>

<svg xmlns="http://www.w3.org/2000/svg" width="24" height="24" fill="none"><path fill="#191C22" d="M4 12h3a2 2 0 0 1 2 2v5a2 2 0 0 1-2 2H4a2 2 0 0 1-2-2v-7C2 6.477 6.477 2 12 2s10 4.477 10 10v7a2 2 0 0 1-2 2h-3a2 2 0 0 1-2-2v-5a2 2 0 0 1 2-2h3a8 8 0 0 0-16 0Z"/></svg>
